X: 43
M:6/8
L:1/8
K:C
E2 A A2 c|BAG Bcd|ege dBG|A3 A3:|
|:e2 a a2 b|c'2 g age|g2 d g2 a|b2 a ged|
e2 a abc'|bag a2 e|g^fe dBG|A3 A3:||

